img/vector-21.svg

<svg fill="none" height="45" viewBox="0 0 128 45" width="128" xmlns="http://www.w3.org/2000/svg"><path d="m48.7806 41.5225-44.87342-23.4832c-2.76212-1.4455-3.774022-4.9013-2.22794-7.6087 1.29054-2.25998 3.9877-3.2998 6.45969-2.49042l51.17347 16.75532c6.1585 2.0164 12.8863 1.2214 18.4011-2.1744l34.0115-20.94299c3.661-2.254041 8.466-.89337 10.415 2.94923l5.25 10.35136-59.2078 27.1549c-6.1951 2.8412-13.3562 2.6526-19.4016-.5111z" fill="#403add"/></svg>

<svg width="128" height="45" viewBox="0 0 128 45" fill="none" xmlns="http://www.w3.org/2000/svg">
<path d="M48.7806 41.5225L3.90718 18.0393C1.14506 16.5938 0.133158 13.138 1.67924 10.4306C2.96978 8.17062 5.66694 7.1308 8.13893 7.94018L59.3124 24.6955C65.4709 26.7119 72.1987 25.9169 77.7135 22.5211L111.725 1.57811C115.386 -0.675931 120.191 0.68474 122.14 4.52734L127.39 14.8787L68.1822 42.0336C61.9871 44.8748 54.826 44.6862 48.7806 41.5225Z" fill="#403ADD"/>
</svg>
